src/App/LoggInn/Innloggingstjenester/skjema.svg

<?xml version="1.0" encoding="UTF-8"?>
<svg width="42px" height="52px" viewBox="0 0 42 52" version="1.1" xmlns="http://www.w3.org/2000/svg" xmlns:xlink="http://www.w3.org/1999/xlink">
    <!-- Generator: Sketch 55.2 (78181) - https://sketchapp.com -->
    <title>skjema</title>
    <desc>Created with Sketch.</desc>
    <g id="Page-1" stroke="none" stroke-width="1" fill="none" fill-rule="evenodd">
        <g id="icons" transform="translate(-430.000000, -363.000000)">
            <g id="skjema" transform="translate(430.000000, 363.000000)">
                <path d="M2,0 L28,0 L42,14 L42,50 C42,51.1045695 41.1045695,52 40,52 L2,52 C0.8954305,52 0,51.1045695 0,50 L0,2 C0,0.8954305 0.8954305,0 2,0 Z" id="Rectangle" fill="#E4E4DB"></path>
                <path d="M28,-2.57571742e-14 L42,14 L30,14 C28.8954305,14 28,13.1045695 28,12 L28,-2.57571742e-14 L28,-2.57571742e-14 Z" id="Path" fill="#B7B1A9"></path>
                <path d="M31.125,20.5 L22.125,20.5 C21.504,20.5 21,21.004 21,21.625 C21,22.246 21.504,22.75 22.125,22.75 L31.125,22.75 C31.746,22.75 32.25,22.246 32.25,21.625 C32.25,21.004 31.746,20.5 31.125,20.5 Z" id="Path" fill="#3E3832"></path>
                <path d="M31.125,29.5 L22.125,29.5 C21.504,29.5 21,30.004 21,30.625 C21,31.246 21.504,31.75 22.125,31.75 L31.125,31.75 C31.746,31.75 32.25,31.246 32.25,30.625 C32.25,30.004 31.746,29.5 31.125,29.5 Z" id="Path" fill="#3E3832"></path>
                <path d="M31.125,38.5000001 L22.125,38.5000001 C21.504,38.5000001 21,39.0040001 21,39.6250001 C21,40.2460001 21.504,40.7500001 22.125,40.7500001 L31.125,40.7500001 C31.746,40.7500001 32.25,40.2460001 32.25,39.6250001 C32.25,39.0040001 31.746,38.5000001 31.125,38.5000001 Z" id="Path" fill="#3E3832"></path>
                <path d="M16.8285,16.3285 L12,21.15925 L9.42149995,18.5785 C8.98274995,18.13975 8.26949995,18.13975 7.83074995,18.5785 C7.39199994,19.01725 7.39199994,19.7305 7.83074995,20.16925 L11.20575,23.54425 C11.424,23.76475 11.712,23.875 12,23.875 C12.288,23.875 12.576,23.76475 12.7965,23.5465 L18.4215,17.9215 C18.86025,17.48275 18.86025,16.7695 18.4215,16.33075 C17.98275,15.892 17.2695,15.88975 16.8285,16.3285 Z" id="Path" fill="#6AB889"></path>
                <path d="M16.8285,25.3285 L12,30.15925 L9.42149995,27.58075 C8.98274995,27.142 8.26949995,27.142 7.83074995,27.58075 C7.39199994,28.0195 7.39199994,28.73275 7.83074995,29.1715 L11.20575,32.5465 C11.424,32.76475 11.712,32.875 12,32.875 C12.288,32.875 12.576,32.76475 12.7965,32.5465 L18.4215,26.9215 C18.86025,26.48275 18.86025,25.7695 18.4215,25.33075 C17.98275,24.892 17.2695,24.88975 16.8285,25.3285 Z" id="Path" fill="#6AB889"></path>
                <path d="M16.8285,34.3285 L12,39.1592501 L9.42149995,36.58075 C8.98274995,36.142 8.26949995,36.142 7.83074995,36.58075 C7.39199994,37.0195001 7.39199994,37.7327501 7.83074995,38.1715001 L11.20575,41.5465001 C11.424,41.7647501 11.712,41.8750001 12,41.8750001 C12.288,41.8750001 12.576,41.7647501 12.7965,41.5465001 L18.4215,35.9215 C18.86025,35.48275 18.86025,34.7695 18.4215,34.33075 C17.98275,33.892 17.2695,33.88975 16.8285,34.3285 Z" id="Path" fill="#6AB889"></path>
            </g>
        </g>
    </g>
</svg>

<svg width="42" height="52" xmlns="http://www.w3.org/2000/svg"><g fill="none" fill-rule="evenodd"><path d="M2 0h26l14 14v36a2 2 0 0 1-2 2H2a2 2 0 0 1-2-2V2a2 2 0 0 1 2-2z" fill="#E4E4DB"/><path d="M28 0l14 14H30a2 2 0 0 1-2-2V0z" fill="#B7B1A9"/><path d="M31.125 20.5h-9a1.125 1.125 0 0 0 0 2.25h9a1.125 1.125 0 0 0 0-2.25zM31.125 29.5h-9a1.125 1.125 0 0 0 0 2.25h9a1.125 1.125 0 0 0 0-2.25zM31.125 38.5h-9a1.125 1.125 0 0 0 0 2.25h9a1.125 1.125 0 0 0 0-2.25z" fill="#3E3832"/><path d="M16.828 16.328L12 21.16l-2.579-2.58a1.126 1.126 0 0 0-1.59 1.59l3.375 3.375c.218.22.506.331.794.331.288 0 .576-.11.796-.328l5.626-5.625a1.126 1.126 0 0 0-1.594-1.594zM16.828 25.328L12 30.16l-2.579-2.578a1.126 1.126 0 0 0-1.59 1.59l3.375 3.376a1.13 1.13 0 0 0 1.59 0l5.626-5.625a1.126 1.126 0 0 0-1.594-1.594zM16.828 34.328L12 39.16l-2.579-2.578a1.126 1.126 0 0 0-1.59 1.59l3.375 3.376a1.13 1.13 0 0 0 1.59 0l5.626-5.625a1.126 1.126 0 0 0-1.594-1.593z" fill="#6AB889"/></g></svg>
